X: 1
T: Valse Des Bas De Laine
M: 3/4
L: 1/8
R: waltz
K: Dmaj
FG |: &quot;D&quot;A2 FA dA | f2 dA dA| &quot;A&quot;ge cA ce | &quot;D&quot;ef dA FG |
&quot;D&quot;A2 FA dA | f2 dA dA | &quot;A&quot;ge cA Bc |1 &quot;D&quot;d2 z2 FG :|2 &quot;D&quot;d2 z2 F2 ||
|: &quot;G&quot;G2 GA BG | &quot;D&quot;FA dF dF | &quot;A&quot;E2 c2 c2 | &quot;D&quot;d2 z2 F2 |
 &quot;G&quot;G2 GA BG | &quot;D&quot;FA dF dF | &quot;A&quot;E2 c2 c2 |1 &quot;D&quot;d2 z2 F2 :|2 &quot;D&quot; d2 z2 ||
